img/button-search-1024.svg

<svg width="30" height="29" viewBox="0 0 30 29" fill="none" xmlns="http://www.w3.org/2000/svg">
<rect width="9.15446" height="2.28862" transform="matrix(-0.718931 0.695081 0.718931 0.695081 6.58105 21.0461)" fill="white"/>
<path fill-rule="evenodd" clip-rule="evenodd" d="M16.1246 24.174C10.0376 24.174 5.32763 19.2725 5.32763 13.5104C5.32763 7.74821 10.0376 2.84674 16.1246 2.84674C22.2115 2.84674 26.9215 7.74821 26.9215 13.5104C26.9215 19.2725 22.2115 24.174 16.1246 24.174ZM16.1246 26.8399C8.76285 26.8399 2.79502 20.8721 2.79502 13.5104C2.79502 6.14867 8.76285 0.180832 16.1246 0.180832C23.4863 0.180832 29.4541 6.14867 29.4541 13.5104C29.4541 20.8721 23.4863 26.8399 16.1246 26.8399Z" fill="white"/>
</svg>

<svg width="30" height="29" fill="none" xmlns="http://www.w3.org/2000/svg"><path fill="#fff" d="M6.581 21.046L0 27.41l1.646 1.59 6.58-6.362z"/><path fill-rule="evenodd" clip-rule="evenodd" d="M16.125 24.174c-6.087 0-10.797-4.901-10.797-10.664 0-5.762 4.71-10.663 10.797-10.663 6.087 0 10.797 4.901 10.797 10.663 0 5.763-4.71 10.664-10.797 10.664zm0 2.666c-7.362 0-13.33-5.968-13.33-13.33C2.795 6.15 8.763.18 16.125.18c7.361 0 13.33 5.969 13.33 13.33 0 7.362-5.969 13.33-13.33 13.33z" fill="#fff"/></svg>
